!!!ONB: MCCC : IJH0447_04 : Extracted Monophonic Melody
!!!COM: Haydn, Joseph
!!!OPR: String Quartet in E-flat major
!!!OMV: 4
!!!SCT: Hob.III:46 ; Op.50 No.3
!!!ODT: 1787///
**kern
*thru
*k[b-e-a-]
*E-:
*clefG
*M2/4
8B-
=1
4.e-
8f
=2
8g
8e-
8e-
8e
=3
4.f
8g
=4
8a-
8f
8f
8f#
=5
4.g
8b-
=6
4.d
8a-
=7
4.g
8b-
=8
4.d
8a-
=9
8g
8r
8a-
8r
=10
8b-
8r
8.cc
32dd
32ee-
=11
4.g
16a-
16g
=12
4f
8r
8B-
=13
4.e-
8f
=14
8g
8e-
8e-
8e
=15
4.f
8g
=16
8a-
8f
8f
8f#
=17
4.g
8b-
=18
4.d
8a-
=19
4.g
8b-
=20
4.d
8a-
=21
8g
8r
8a-
8r
=22
8b-
8r
8.cc
32dd
32ee-
=23
4e-
8.f
16e-
=24
4e-
8r
8b-
=25
4.ee-
8ff
=26
8gg
16ee-
16ff
16gg
16aa-
16bb-
16ccc
=27
4.bb-
8ddd
=28
8eee-
16ggg
16fff
16eee-
16ddd
16ccc
16bb-
=29
4.aa-
8gg
=30
8ff
16ccc
16bb-
16aa-
16gg
16ff
16ee-
=31
8dd
16ff
16ee-
16dd
16cc
16b-
16a-
=32
4.g
8r
=33
8r
16gg
16ff
16ee-
16dd
16cc
16b-
=34
4a
4r
=35
8r
16ccc
16bb-
16aa
16gg
16ff
16ee-
=36
4dd
4r
=37
8r
4bb-
8aa-
=38
8gg
8g
8gg
8gg
=39
2gg[
=40
4gg]
8ff
8ee
=41
4ff
4ee-
=42
2dd
=43
2cc
=44
4b-
4ee-[
=45
4ee-]
4dd
=46
4cc
8a
16g
16a
=47
4b-
8r
8ff
=48
4.bb-
8ccc
=49
8ddd
8bb-
8bb-
8bb
=50
4.ccc
8ddd
=51
8eee-
8ccc
8ccc
8ccc#
=52
8ddd
8aa
8bb-
8ff#
=53
8gg
8dd
8ee-
8b
=54
8cc
8dd
8ee-
8b
=55
8cc
8dd
8ee-
8b
=56
8cc
8dd
8ee-
8ee
=57
8ff
8ff#
8aa
8gg
=58
8ff
8ee-
8dd
8cc
=59
8b
8b-
8a
8a-
=60
8g
8g-
8f
8e
=61
8f
8b-
8dd
8ff
=62
8bb-
8ddd
8fff
8bb-
=63
2ccc[
=64
2ccc]
=65
2bb-
=66
2bb-
=67
2bb-
=68
2bb-
=69
2bb-
=70
2bb-[
=71
8bb-]
8aa-
8ff
8dd
=72
8b-
8a-
8f
8d
=73
2c-
=74
4B-
8r
8B-
=75
4.e-
8f
=76
8g
8e-
8e-
8g
=77
4.a-
8b-
=78
8cc
8a-
8a-
8a
=79
4.b-
8cc
=80
8dd-
8b-
8b-
8b
=81
4.cc
8dd-
=82
8ee-
8cc
8cc
8ee-
=83
8ff
8dd-
8dd-
8ff
=84
8gg-
8ee-
8ff
8dd-
=85
2a-[
=86
4a-]
4g-
=87
4f
4ff[
=88
4ff]
4ee-
=89
4.dd-
8ff
=90
4.a
8ee-
=91
4.dd-
8ff
=92
4.a
8ee-
=93
8dd
8ee-
8dd
8ccc-
=94
8r
8dd
8ee-
8bb-
=95
8r
8ee-
8dd
8ccc-
=96
8r
8dd
8ee-
8bb-
=97
8r
8dd-
8cc
8bb-
=98
8r
8cc
8dd-
8aa-
=99
8r
8cc
8b-
8aa-
=100
8r
8b-
8cc
8gg-
=101
8r
8b-
8a
8gg-
=102
8r
8a
8b-
8ff
=103
4.ee
8cc
=104
4.ff
8cc
=105
4.bb-
8cc
=106
4.aa-
8cc
=107
4.aa-
8ff
=108
4.aa-
8b
=109
4cc
4r
=110
4.r
8cc
=111
4.ff
8gg
=112
8aa-
8ff
8ff
8ff#
=113
4.gg
8aa-
=114
8bb-
8gg
8gg
8bb-
=115
2aa[
=116
4.aa]
8bb-
=117
2aa[
=118
4.aa]
8bb-
=119
2aa[
=120
4aa]
4aa
=121
4.aa-
8bb-
=122
8ccc-
8aa-
8aa-
8aa-
=123
4.aa-
8bb-
=124
8ccc-
8aa-
8aa-
8aa-
=125
4.gg
8aa-
=126
8bb-
8gg
8gg
8bb-
=127
4.aa-
8bb-
=128
8ccc
8aa-
8aa-
8ccc
=129
4.bb-
8ccc
=130
8ddd-
8bb-
8bb-
8ddd-
=131
4.ccc
8bb-
=132
8aa-
8gg
8ff
8ee-
=133
2bb-
=134
2bb-
=135
2bb-
=136
2bb-
=137
2bb-
=138
2bb-[
=139
8bb-]
8aa-
8ff
8dd
=140
8b-
8a-
8f
8d
=141
2c-
=142
4B-
8r
8B-
=143
4.e-
8f
=144
8g
8e-
8e-
8e
=145
4.f
8g
=146
8a-
8f
8f
8f#
=147
4.g
8b-
=148
4.d
8a-
=149
4.g
8b-
=150
4.d
8a-
=151
8g
8r
8a-
8r
=152
8b-
8r
8.cc
32dd
32ee-
=153
4.g
16a-
16g
=154
4f
8r
8b-
=155
8ee-
8ee-
8r
8ff
=156
8gg
8ee-
8r
8ee
=157
8ff
8ff
8r
8gg
=158
8aa-
8ff
8r
8ff#
=159
8gg
8gg
8r
8bb-
=160
8dd
8dd
8r
8aa-
=161
8gg
8gg
8r
8bb-
=162
8dd
8dd
8r
8aa-
=163
8r
8gg
8r
8aa-
=164
8r
8bb-
8r
8ccc
=165
8ddd-
16ddd-
16ccc
8bb-
16bb-
16aa-
=166
8gg
16gg
16ff
8ee-
16ee-
16dd-
=167
8cc
16ccc
16bb-
8aa-
16aa-
16gg
=168
8ff
16aa-
16gg
8ff
16ff
16ee-
=169
8dd
4ff
8gg
=170
8aa-
8ff
8ff
8ff#
=171
4.gg
8aa-
=172
8bb-
8gg
8gg
8gg
=173
4.aa-
8bb-
=174
8ccc
8aa-
8aa-
8aa-
=175
2gg
=176
2ff
=177
2ee-
=178
2dd
=179
2cc
=180
4b-
4ee-[
=181
4ee-]
4dd
=182
2ee-
=183
2a
=184
2ff
=185
2a-
=186
8g
8r
8f
8r
=187
8e-
8r
8d
8r
=188
2eee-
=189
2aa
=190
2fff
=191
2aa-
=192
8gg
8r
8ff
8r
=193
8ee-
8r
8dd
8r
=194
2ee-
=195
2dd-
=196
2cc[
=197
2cc]
=198
2A-[
=199
2A-]
=200
4G
4r
=201
4e-
4e-
=202
4e-
4r
=203
2r
==
*-
